!!!COM: Robert Franz
!!!CNT: Deutscher
!!!TXO: Deutsche 
!!!OTL: "Herziges Schatzle du!"
!!!OPS: Op. 50
!!!ONM: No. 1
!!!ONB: Original key: A Major
!!!LYR: W. Osterwald
!!!ENC: Brian Bice
!!!YOR: Vocal Album, G. Schirmer, Inc., 1907
!!!ODT: 1879/
!!NB: Vocal melody and text only encoded.
**kern	**silbe
*clefG2	*
*k[f#c#g#d#]	*
*M2/4	*
=1	=1
{8b	{Her-
16a#	-zi-
16cc#	-ges
16b	Scha2tz-
16ee	-le
8b	du,
=2	=2
8g#	hast
16f##	mir
16an	auch
16g#	all'
16b	mei
8e}	Ruh'}
=3	=3
{8f#	{g'stoh-
16e	-len,
16d#	du
16e	lo-
16f#	-ser
8g#	Dieb,
=4	=4
(16a#	hab'
32b	|
32a#)	|
16g#	di
16f#	doch
4b}	lieb!}
=5	=5
{8f#	{Wenn
16e#	dir
16f#	in's
16.g#	dun-
32f#	-kel-
8f#	-blau,
=6	=6
8g#	fun-
16f##	-kel-
16g#	-hell
16.a	Schelm-
32g#	-aug'
8g#}	schau,}
=7	=7
{8b	{mein'
16a#	i,
16b	i
16.cc#	sa2h'
32b	in
8b	mein
=8	=8
(16an	Him-
16g#)	|
16f#	-mel-
16e	-reich'
8cc#;}	nein,}
{16a	{in
16f#	mein
=9	=9
16d#	Him-
16f#	-mel-
8a	-reich
8r	.
(16g#	hin-
16f#)	|
=10	=10
[4e	-ein.
8e]}	|}
8r	.
=12	=12
{8b	{A-
16a#	-ber
16cc#	wann
16b	du
16ee	bist
8b	fern,
=13	=13
8g#	hab'
16f##	i
16an	kei
16g#	Sonn',
16b	kei
8e}	Stern,}
=14	=14
{8f#	{der
16e	mir
16d#	die
16e	dun-
16f#	-kel
8g#	Welt
=15	=15
(16a#	freund-
32b	|
32a#)	|
16g#	-li
16f#	er-
4b}	-hellt!}
=16	=16
{8f#	{Hab'
16e#	ein
16f#	Er-
16.g#	-bar-
32f#	-men
8f#	dann,
=17	=17
8g#	Schatz,
16f#	mit
16g#	mir
16.a	ar-
32g#	-men
8g#}	Mann,}
=18	=18
{8b	{fun-
16a#	-kel-
16b	-hell
16.cc#	Schlem-
32b	-aug'
16b	du
16e	sieh'
=19	=19
(16an	freund-
16g#)	|
16f#	-li
16e	mi
8cc#;}	an,}
{(16a	{sieh'
16f#)	|
=20	=20
8d#	freund-
8a	|
8g#	-li
8f#	mi
=21	=21
[4e	an!
8e]}	|}
8r	.
=23	=23
{8b	{Wann
16a#	mir
16cc#	dei'
16b	Schlem-
16ee	-aug'
8b	lacht,
=24	=24
8g#	ist
16f##	mir
16an	die
16g#	Er-
16b	-den-
8e}	-nacht,}
=25	=25
{8f#	{ist
16e	mir
16d#	das
16e	Jam-
16f#	-mer-
8g#	-thal
=26	=26
(16a#	hell
32b	|
32a#)	|
16g#	auf
16f#	ein
4b}	mal!}
=27	=27
{8f#	{Ach!
16e#	und
16f#	wenn
16.g#	du
32f#	mich
8f#	liebst,
=28	=28
8g#	mir
16f##	a
16g#	su2ss
16.a	Bus-
32g#	-serl
8g#}	giebst,}
=29	=29
{8b	{spring'
16a#	i
16cc#	gleich
(16b	le-
16ee)	|
16b	-big
16g#	in's
=30	=30
(16an	Him-
16g#)	|
16f#	-mel-
16e	-reich
8cc#;}	'nein,}
{(16a	{in's
16f#)	|
=31	=31
(16d#	Him-
16f#)	|
(16f#	-mel-
16a)	|
8a	-reich
(16g#	hin-
16f#)	|
=32	=32
[4e	ein.
8e]}	|}
8r	.
*-	*-
